X:11
T:Contentment is Wealth
R:jig
H:See also #369
D:Patrick Street 1.
Z:id:hn-jig-11
M:6/8
K:Edor
GFG Eed|BAB EFG|FAF DdB|AFD D2f|gfe edB|BAB ~d3|BdB DFA|GED E3:|
|:ede Beg|bge gfe|dcd Adf|afd fed|ede Beg|bge gfe|BdB DFA|GED E3:|

